X: 2175
T: JESSIE RALSTON'S REEL
C: By H. Dunlop
Q: "Reel."
R: Reel.
%R: reel
B: James Kerr "Merry Melodies" v.2 p.20 #175
Z: 2016 John Chambers <jc:trillian.mit.edu>
M: C
L: 1/8
K: D
uA |\
   d2fd (gf)ed | ceAe ceAe |\
[1 d2fd (gf)ed | ceAg fd d :|\
[2 defg adfd | gece (fd)d2 ||
|:\
   DEFG ADFA | BdAF GEEF |\
[1 DEFG ADFA | dABG FDDF :|\
[2 FADA GBEd | ceAg fd d :|
